svg/fluentui-system-icons/ic_fluent_document_copy_16_filled.svg

<svg width="16" height="16" viewBox="0 0 16 16" fill="none" xmlns="http://www.w3.org/2000/svg">
<path d="M8.99854 4.5V1H6.49854C5.67011 1 4.99854 1.67157 4.99854 2.5V11.5C4.99854 12.3284 5.67011 13 6.49853 13L12.5 13C13.3284 13 14 12.3284 14 11.5V6H10.4985C9.67011 6 8.99854 5.32843 8.99854 4.5ZM9.99854 4.5V1.25L13.7485 5H10.4985C10.2224 5 9.99854 4.77614 9.99854 4.5ZM3 4C3 3.44772 3.44772 3 4 3V11.5C4 12.8807 5.11929 14 6.5 14L12 14C12 14.5523 11.5523 15 11 15H6.55556C4.59188 15 3 13.4081 3 11.4444V4Z" fill="#212121"/>
</svg>

<svg xmlns="http://www.w3.org/2000/svg" width="16" height="16"><path d="M8.999 4.5V1h-2.5a1.5 1.5 0 0 0-1.5 1.5v9a1.5 1.5 0 0 0 1.5 1.5H12.5a1.5 1.5 0 0 0 1.5-1.5V6h-3.502a1.5 1.5 0 0 1-1.5-1.5Zm1 0V1.25L13.749 5h-3.25a.5.5 0 0 1-.5-.5ZM3 4a1 1 0 0 1 1-1v8.5A2.5 2.5 0 0 0 6.5 14H12a1 1 0 0 1-1 1H6.556A3.556 3.556 0 0 1 3 11.444V4Z"/></svg>
